X:54
T:Prince William of Auguster. LIT.054
M:2/4
Q:1/4=140
L:1/8
B:Wm. Litten MS, 1802
Z:Village Music Project 2017 Anne Wride
K:G
((3Bcd) BG | Ac B2 | ((3Bcd) BG | FA FD | ((3Bcd) BG | Ac ((3Bcd) | ec AF | G2G2 :|
|: gf ga | ((3ABc) cc | cd BG | ((3GAB) BB | BB ((3ABc) | c4 | d4 | g4 :|

